shared/images/iconfont/kb-iconfont-device-24.svg

<?xml version="1.0" encoding="UTF-8"?>
<svg width="24px" height="24px" viewBox="0 0 24 24" version="1.1" xmlns="http://www.w3.org/2000/svg" xmlns:xlink="http://www.w3.org/1999/xlink">
    <!-- Generator: sketchtool 41.2 (35397) - http://www.bohemiancoding.com/sketch -->
    <title>5DF00C22-01C3-4B73-AEE8-6658FB1E0631</title>
    <desc>Created with sketchtool.</desc>
    <defs></defs>
    <g id="Icons" stroke="none" stroke-width="1" fill="none" fill-rule="evenodd">
        <g id="Style-guide---Desktop---Icons-2" transform="translate(-161.000000, -1102.000000)">
            <g id="kb-iconfont-nav-device-24" transform="translate(161.000000, 1102.000000)">
                <rect id="icon-area" fill="#D8D8D8" opacity="0" x="0" y="0" width="24" height="24"></rect>
                <path d="M13.1227737,17.3055255 C12.9960781,17.483208 12.7439706,17.5254203 12.5609744,17.3995918 L7.69214031,14.0517752 C7.50914407,13.9259467 7.46331205,13.6788709 7.59000768,13.5011884 L13.9135844,4.63277533 C14.04028,4.4550928 14.2923874,4.41288052 14.4753836,4.53870897 L19.3442177,7.88652561 C19.527214,8.01235406 19.573046,8.25942989 19.4463504,8.43711242 L13.1227737,17.3055255 L13.1227737,17.3055255 Z M7.89645557,19.4740496 C7.21514618,18.9951531 7.04532617,18.0592935 7.51681903,17.3833369 C7.98851679,16.7070865 8.92264292,16.5471973 9.6039523,17.0260937 C10.2846698,17.5045741 10.4547857,18.4406418 9.98308797,19.1168922 C9.51159511,19.7928488 8.57746899,19.952738 7.89645557,19.4740496 L7.89645557,19.4740496 L7.89645557,19.4740496 Z M21.3837355,6.74750839 L14.9163323,2.25980883 C14.266836,1.80912651 13.3759964,1.95965192 12.9263241,2.59606106 L3.2544898,16.2843486 C2.8048175,16.9207578 2.96676822,17.8018093 3.61626453,18.2524916 L10.0836677,22.7401912 C10.733164,23.1908735 11.6240036,23.0403481 12.0736759,22.4039389 L21.7455102,8.71565137 C22.1951825,8.07924222 22.0332318,7.19819072 21.3837355,6.74750839 L21.3837355,6.74750839 L21.3837355,6.74750839 Z" id="Fill-1" fill="#000000"></path>
            </g>
        </g>
    </g>
</svg>

<svg xmlns="http://www.w3.org/2000/svg" width="24" height="24" viewBox="0 0 24 24">
    <path fill="#000" fill-rule="evenodd" d="M13.123 17.306a.408.408 0 0 1-.562.094l-4.869-3.348a.392.392 0 0 1-.102-.55l6.324-8.87a.408.408 0 0 1 .561-.093l4.87 3.348a.392.392 0 0 1 .101.55l-6.323 8.869zm-5.227 2.168a1.506 1.506 0 0 1-.38-2.09 1.493 1.493 0 0 1 2.088-.358c.68.479.85 1.415.38 2.09a1.493 1.493 0 0 1-2.088.358zM21.384 6.748L14.916 2.26c-.65-.45-1.54-.3-1.99.336L3.254 16.284a1.407 1.407 0 0 0 .362 1.968l6.468 4.488c.65.45 1.54.3 1.99-.336l9.672-13.688a1.407 1.407 0 0 0-.362-1.968z"/>
</svg>
